!!!COM: Haydn, Franz Joseph
!!!OTL: String Quartet in E-flat Major
!!!CDT: 1732/3/31/-1809/5/31/
!!!CNT: Oesterreich
!!!OPS: Opus 20
!!!ONM: No. 1
!!!OMD: Affettuoso e sostenuto
!!!OMV: 3
!!!SCT: H III:31
!!!SCA: Thematisch-bibliographisches Werkevererzeichnis (A. van Hoboken)
!!!YOR: Altmann Edition
!!!ENC: Nestor Napoles
!!!YEC: Copyright (c) 2017 Universitat Pompeu Fabra
!!!YEM: Rights to all derivative editions reserved.
!!!YEM: Refer to licensing agreement for further details.
!!!YEN: Barcelona, Spain
**tshrm	**tsroot	**kern	**kern	**kern	**kern
*k[b-e-a-d-]	*k[b-e-a-d-]	*k[b-e-a-d-]	*k[b-e-a-d-]	*k[b-e-a-d-]	*k[b-e-a-d-]
*	*	*A-:	*A-:	*A-:	*A-:
*	*	*clefF4	*clefC3	*clefG2	*clefG2
*M3/8	*M3/8	*M3/8	*M3/8	*M3/8	*M3/8
*A-:	*A-:	*	*	*	*
I	A-	[4.AA-/	8A-/L	8c/L	[4.a-/
.	A-	.	8B-/	8d-/	.
.	A-	.	8c/J	8e-/J	.
=2	=2	=2	=2	=2	=2
IVc	D-	4.AA-/_	8d-\L	8f/L	4a-/]
I	A-	.	8c\	8e-/	.
IVc	D-	.	8B-\J	8g/J	8dd-\
=3	=3	=3	=3	=3	=3
I	A-	8AA-/L]	4A-/	[4.a-/	8cc\L
IVb	D-	8FF/	.	.	8dd-\
.	D-	8DD-/J	[8A-/	.	8ff\J
=4	=4	=4	=4	=4	=4
Ib	A-	8CC/L	8A-/L]	8a-/L]	8ee-\L
V7b	E-	8GG/	8E-/	8b-/	8dd-\
I	A-	8AA-/J	8E-/J	8e-/J	8cc\J
=5	=5	=5	=5	=5	=5
iib	B-	8DD-/L	16D-/LL	8f/L	8b-/L
.	B-	.	16d-/JJ	.	.
Ic	A-	8EE-/	8c/L	8e-/	8a-/
V7	E-	8EE-/J	8B-/J	8d-/J	8g/J
=6	=6	=6	=6	=6	=6
I	A-	[4.AA-/	8A-/L	8c/L	[4.a-/
IVc	D-	.	8d-/	8f/	.
I	A-	.	8B-/J	8e-/J	.
=7	=7	=7	=7	=7	=7
.	A-	4.AA-/_	8A-/L	8d-/L	4a-/]
.	A-	.	8G/	8c/	.
.	A-	.	8A-/J	8B-/J	8d-/
=8	=8	=8	=8	=8	=8
.	A-	8AA-/L]	[4.A-/	8c/L	[4.a-/
.	A-	8BB-/	.	8d-/	.
.	A-	8C/J	.	8e-/J	.
=9	=9	=9	=9	=9	=9
IV	D-	8D-/L	4A-/]	8f/L	4a-/]
Ib	A-	8C/	.	8e-/	.
V7c	E-	8BB-/J	[8e-\	8g/J	8dd-\
=10	=10	=10	=10	=10	=10
!!linebreak:original
I	A-	8AA-/L	8e-\L]	[4.a-/	8cc\L
IVb	D-	8F/	8d-\	.	8dd-\
.	D-	8D-/J	8d-\J	.	8ff\J
=11	=11	=11	=11	=11	=11
Ib	A-	8C\L	4.e-\	8a-/L]	8ee-\L
V7b	E-	8G\	.	8b-/	8dd-\
I	A-	8A-\J	.	8e-/J	8cc\J
=12	=12	=12	=12	=12	=12
iib	B-	8D-/L	4d-\	8f/L	8b-\L
.	B-	8BB-/	.	8d-/	8ff\
V7b/V	B-	8Dn/J	8dn\	8f/J	8a-\J
=13	=13	=13	=13	=13	=13
*E-:	*E-:	*	*	*	*
I	E-	8E-\L	[4.e-\	8B-/L	8g\L
.	E-	8E-\	.	8g/	8ee-\
IV	A-	8F\J	.	8a-/J	8ddn\J
=14	=14	=14	=14	=14	=14
V7b/IV	E-	8G\L	4e-\]	8b-/L	8dd-\L
IV	A-	8A-\	.	8e-/	8cc\
Ib	E-	8G\J	8B-/	8g/J	8een\J
=15	=15	=15	=15	=15	=15
ii	F	8F\L	8A-/L	8a-/L	8ff\L
I	E-	8E-\	8G/	8b-/	8gg\
V7b	B-	8Dn\J	8F/J	[8b-/J	8aa-\J
=16	=16	=16	=16	=16	=16
I	E-	8E-\L	8G/L	8b-/L]	8gg\L
ii	F	8F\	8A-/	8a-/	8ff\
Ib	E-	8G\J	8B-/J	8g/J	8ee-\J
=17	=17	=17	=17	=17	=17
iib	F	4A-\	8c\L	4f/	8ff\L
.	F	.	8f\	.	8cc\
V7b/V	F	8An\	8g-\J	8cc\	8ee-\J
=18	=18	=18	=18	=18	=18
V	B-	8B-\L	8f\L	8b-/L	8ddn\L
V7c/V	F	8c\	8e-\	8an/	8cc\
Vb	B-	8dn\J	8f\J	8b-/J	8b-\J
=19	=19	=19	=19	=19	=19
!!pagebreak:original
vi7b	C	8e-\L	8g\L	8b-/L	4.cc\
ii	F	8f\	8f\	8a-/	.
ii7d	F	8e-\J	8f\J	8a-/J	.
=20	=20	=20	=20	=20	=20
.	F	8dn\L	8c\L	8a-/L	8ff\L
I	E-	8e-\	8e-\	8g/	8b-\
.	E-	8d\J	8e-\J	8g/J	8b-\J
=21	=21	=21	=21	=21	=21
IV	A-	8c\L	8A-\L	8g/L	8ee-\L
V7b	B-	8dn\	8dn\	8f/	8a-\
IVb	A-	8c\J	16e-\L	8e-/J	8a-\J
.	A-	.	16a-\JJ	.	.
=22	=22	=22	=22	=22	=22
V7	B-	8B-\L	8a-\L	8dn/L	8ff\L
.	B-	8Bn\	8dn\	8f/	8a-\
vi	C	8c\J	8e-\J	8e-/J	8g\J
=23	=23	=23	=23	=23	=23
ii	F	8F\L	8A-/L	8a-/L	8cc/L
Ic	E-	8B-\	8B-/	8g/	8e-/
V7	B-	8BB-\J	8A-/J	8f/J	8dn/J
=24	=24	=24	=24	=24	=24
Ib	E-	8GG\L	8G\L	8e-/L	4.b-\
.	E-	8e-\	8g\	8g/	.
v7b	B-	8d-\J	8a-\J	8f/J	.
=25	=25	=25	=25	=25	=25
V7/ii	C	8c\L	8b-\L	8en/L	8gg\L
ii	F	8f\	8a-\	8f/	8cc\
ii7d	F	8e-\J	8a-\J	8f/J	8cc\J
=26	=26	=26	=26	=26	=26
V7	B-	8dn\L	8a-\L	8B-/L	8ff\L
i	E-	8e-\	8g-\	8e-/	8b-\
vb	B-	8d-\J	8f\J	8b-/J	8b-\J
=27	=27	=27	=27	=27	=27
!!linebreak:original
iio7	F	4.c-\	8e-\L	4.an/	8ee-\L
iio7	F	.	8f\	.	8ddn\
iio7	F	.	[8g-\J	.	8ee-\J
=28	=28	=28	=28	=28	=28
ic	E-	[4.B-\	8g-\L]	4b-\	8ee-\L
V	B-	.	8f\	.	8ddn\
.	B-	.	8dn\J	8f/	8b-\J
=29	=29	=29	=29	=29	=29
vi7d	C	8B-\L]	8e-\L	8g/L	4cc\
iib	F	8A-\	8f\	8a-/	.
.	F	8A-\J	8f\J	8a-/J	16aa-\LL
.	F	.	.	.	16ff\JJ
=30	=30	=30	=30	=30	=30
V7d	B-	4A-\	4f\	4b-\	4ddn\
.	B-	8r	8r	8r	16ccc\LL
.	B-	.	.	.	16bb-\JJ
=31	=31	=31	=31	=31	=31
.	B-	4.r	4.r	4.r	8.bb-\L
.	B-	.	.	.	32aa-\LL
.	B-	.	.	.	32gg\JJJ
.	B-	.	.	.	16ff\LL
.	B-	.	.	.	32ee-\L
.	B-	.	.	.	32ddn\JJJ
=32	=32	=32	=32	=32	=32
I	E-	8r	8r	8r	8ee-\L
V7/IV	E-	4G\	[4E-/	[4e-/	8dd-\
.	E-	.	.	.	8bn\J
=33	=33	=33	=33	=33	=33
!!linebreak:original
IVc	A-	8A-\L	16.E-/LL]	8e-/L]	48b-\LLL
.	A-	.	.	.	48cc\
.	r	.	.	.	48ddn\
.	A-	.	.	.	48ee-\
.	r	.	.	.	48cc\
.	r	.	32c/JJk	.	.
.	A-	.	.	.	48a-\JJJ
Ic	E-	8B-\	8.B-/L	8e-/	8g/L
V7	B-	8BB-\J	.	8dn/J	8f/J
.	B-	.	16A-/Jk	.	.
=34	=34	=34	=34	=34	=34
I	E-	[4.E-\	8G/L	8e-/L	[4.e-/
IVc	A-	.	8c/	8a-/	.
I	E-	.	8B-/J	8g/J	.
=35	=35	=35	=35	=35	=35
IVc	A-	4.E-\]	8A-/L	8f/L	8.e-/L]
I	E-	.	8G/	8e-/	.
.	E-	.	.	.	16B-/Jk
V7	B-	.	8F/J	8dn/J	16A-/LL
.	B-	.	.	.	32G/L
.	B-	.	.	.	32A-/JJJ
=36	=36	=36	=36	=36	=36
I	E-	[4.EE-/	8G\L	8e-/L	16G/LL
.	E-	.	.	.	16e-/JJ
IVc	A-	.	8a-\	8cc/	[4e-/
I	E-	.	8g\J	8b-/J	.
=37	=37	=37	=37	=37	=37
IVc	A-	4.EE-/_	8f\L	8a-/L	8.e-/L]
I	E-	.	8e-\	8g/	.
.	E-	.	.	.	16B-/Jk
.	E-	.	8dn\J	8f/J	16A-/LL
.	E-	.	.	.	32G/L
.	E-	.	.	.	32A-/JJJ
=38	=38	=38	=38	=38	=38
.	E-	4.EE-/]	4e-\	4g/	4G/
.	E-	.	8r	8r	8r
=39:|!|:	=39:|!|:	=39:|!|:	=39:|!|:	=39:|!|:	=39:|!|:
.	E-	[4.E-\	8E-/L	8G/L	[4.e-/
.	E-	.	8F/	8A-/	.
.	E-	.	8G/J	8B-/J	.
=40	=40	=40	=40	=40	=40
!!pagebreak:original
IV	A-	4.E-\_	8A-/L	8c/L	4e-/]
Ib	E-	.	8G/	8B-/	.
V7c	B-	.	8F/J	8dn/J	8a-/
=41	=41	=41	=41	=41	=41
I	E-	8E-/L]	[4.E-/	[4.e-/	8g/L
IVb	A-	8C/	.	.	8a-/
.	A-	8AA-/J	.	.	8cc/J
=42	=42	=42	=42	=42	=42
Ib	E-	8GG/L	8E-/L]	8e-/L]	8b-/L
V7b	B-	8Dn/	8B-/	8f/	8a-/
I	E-	8E-/J	8B-/J	8B-/J	8g/J
=43	=43	=43	=43	=43	=43
iib	F	8AA-/L	8A-/L	8c/L	8f/L
Ic	E-	8BB-/	8G/	8B-/	8e-/
V7	B-	8BB-/J	8F/J	8A-/J	8dn/J
=44	=44	=44	=44	=44	=44
*D-:	*D-:	*	*	*	*
vii	C	8C\L	8E-/L	8G/	[4.ee-\
ii	E-	8e-\	8g-/	8r	.
ii7d	E-	8d-\J	8f/J	8r	.
=45	=45	=45	=45	=45	=45
vii	C	8c\L	8e-\L	8cc\L	8ee-\L]
vi	B-	8B-\	8d-\	8dd-\	8ff\
V7b/vi	F	8An\J	8c\J	8ee-\J	8gg-\J
=46	=46	=46	=46	=46	=46
vi	B-	8B-\L	8d-\L	8dd-\L	8ff\L
vii	C	8c\	8e-\	8cc\	8ee-\
vib	B-	8d-\J	8f\J	[8b-\J	8dd-\J
=47	=47	=47	=47	=47	=47
Dim	C	8e-\L	8g-\L	8b-\L]	4cc\
III	F	8f\	8f\	8an\	.
V7b/vi	F	8An\J	[8f\J	[8cc\J	8ee-\
=48	=48	=48	=48	=48	=48
!!linebreak:original
vi	B-	4.B-\	8f\L]	8cc\L]	4dd-\
IVb	G-	.	8g-\	8b-\	.
.	G-	.	[8g-\J	[8dd-\J	16ff\LL
.	G-	.	.	.	16ee-\JJ
=49	=49	=49	=49	=49	=49
V7b	A-	4c\	8g-\L]	8dd-\L]	4ee-\
.	A-	.	8a-\	8cc\	.
.	A-	8C/	8a-\J	8ee-\J	8gg-\
=50	=50	=50	=50	=50	=50
I	D-	8D-\L	8f\L	8a-/L	8ff\L
ii	E-	8E-\	8g-\	8g-/	8ee-\
Ib	D-	8F\J	8a-\J	8f/J	8dd-\J
=51	=51	=51	=51	=51	=51
iib	E-	8G-\L	8b-\L	8b-/L	8ee-\L
Ic	D-	8A-\	8a-\	8f/	8dd-\
V7	A-	8AA-\J	8g-\J	8e-/J	8cc\J
=52	=52	=52	=52	=52	=52
I	D-	8D-\L	8f\L	8f/L	[4.dd-\
ii7	E-	8E-\	8e-\	8g-/	.
Ib	D-	8F\J	8d-\J	8a-/J	.
=53	=53	=53	=53	=53	=53
IV	G-	8G-\L	4d-\	8b-\	4dd-\]
Ib	D-	8F\	.	4a-/	.
i7b	D-	8F-\J	16cc-\LL	.	8ddn\
.	D-	.	16a-\JJ	.	.
=54	=54	=54	=54	=54	=54
*A-:	*A-:	*	*	*	*
V	E-	8E-\L	8g\L	8g/L	[4.ee-\
vi7	F	8F\	8f\	8a-/	.
Vb	E-	8G\J	8e-\J	8b-/J	.
=55	=55	=55	=55	=55	=55
I	A-	8A-\L	4e-\	8cc\	4ee-\]
Vb	E-	8G\	.	4b-\	.
v7b	E-	8G-\J	16dd-\LL	.	8een\
.	E-	.	16cc\JJ	.	.
=56	=56	=56	=56	=56	=56
!!linebreak:original
VI	F	8F\L	8an\L	8an\L	[4.ff\
vii7	G	8G\	8g\	8b-\	.
VIb	F	8An\J	8f\J	8cc\J	.
=57	=57	=57	=57	=57	=57
ii	B-	8B-\L	8d-\L	8dd-\L	8ff\L]
Ib	A-	8c\	8e-\	8cc\	8ee-\
iib	B-	8d-\J	8f\J	8b-\J	8dd-\J
=58	=58	=58	=58	=58	=58
v	E-	8e-\L	8g-\	8b-/L	4cc\
VI	F	8f\	[4f\	8an/	.
ic	A-	8e-\J	.	8a-/J	8cc-\
=59	=59	=59	=59	=59	=59
V7b/V	B-	8dn\L	8f\]	8a-/L	4b-\
V	E-	8e-\	[4e-\	8g/	.
Chr	G-	8d-\J	.	[8g-/J	8b--\
=60	=60	=60	=60	=60	=60
V7b/IV	A-	8c\L	8e-\L]	8g-/L]	4.a-/
IV	D-	8d-\	8d-\	8f/	.
Ib	A-	8c\J	[8a-\J	8e-/J	.
=61	=61	=61	=61	=61	=61
ii	B-	8B-\L	8a-\L]	8d-/L	4dd-\
V7	E-	8E-\	8g\	8dd-/	.
I	A-	8A-\J	[8a-\J	8ee-/J	8cc\
=62	=62	=62	=62	=62	=62
IV	D-	4.D-\	8a-\L]	8cc\L	[4.ff\
.	D-	.	8b-\	8b-\	.
.	D-	.	[8dd-\J	8a-\J	.
=63	=63	=63	=63	=63	=63
V7	E-	8E-\L	8dd-\L]	8g/L	8ff\L]
I	A-	8F\	8cc\	8a-/	8ee-\
V7b	E-	8G\J	8b-\J	[8b-/J	8dd-\J
=64	=64	=64	=64	=64	=64
!!pagebreak:original
I	A-	8A-\L	8e-\L	8b-/L]	4cc\
vi	F	8F\	8a-\	8a-/	.
V7/V	B-	8B-\J	8f\J	8a-/J	8ddn\
=65	=65	=65	=65	=65	=65
V	E-	[4.E-\	8e-\L	8g/L	[8ee-\L
.	E-	.	8g\	8b-/	24ee-\L]
.	E-	.	.	.	24ff\
.	E-	.	.	.	24gg\JJ
vi7d	F	.	8f\J	8a-/J	24aa-\LL
.	F	.	.	.	24ff\
.	F	.	.	.	24ddn\JJ
=66	=66	=66	=66	=66	=66
V	E-	4.E-\_	8e-\L	8g/L	[8ee-\L
.	E-	.	8g\	8b-/	24ee-\L]
.	E-	.	.	.	24ff\
.	E-	.	.	.	24gg\JJ
Ic	A-	.	8f\J	8a-/J	24aa-\LL
.	A-	.	.	.	24ff\
.	A-	.	.	.	24ddn\JJ
=67	=67	=67	=67	=67	=67
V	E-	8E-/L]	8e-/L	8g/L	[8ee-\L
V7	E-	8EE-/J	8E-/J	8G/J	24ee-\L]
.	E-	.	.	.	24dd-\
.	E-	.	.	.	24ee-\JJ
IV	D-	8r	8r	8r	24ff\LL
.	D-	.	.	.	24dd-\
.	D-	.	.	.	24b-\JJ
=68	=68	=68	=68	=68	=68
I	A-	[4.AA-/	8A-/L	8c/L	[4.a-/
.	A-	.	8B-/	8d-/	.
.	A-	.	8c/J	8e-/J	.
=69	=69	=69	=69	=69	=69
IVc	D-	4.AA-/_	8d-\L	8f/L	4a-/]
I	A-	.	8c\	8e-/	.
IVc	D-	.	8B-\J	8g/J	8dd-\
=70	=70	=70	=70	=70	=70
I	A-	8AA-/L]	[4.A-/	[4.a-/	8cc\L
IVb	D-	8FF/	.	.	8dd-\
.	D-	8DD-/J	.	.	8ff\J
=71	=71	=71	=71	=71	=71
!!linebreak:original
Ib	A-	8CC/L	8A-/L]	8a-/L]	8ee-\L
V7b	E-	8GG/	8E-/	8b-/	8dd-\
I	A-	8AA-/J	8E-/J	8e-/J	8cc\J
=72	=72	=72	=72	=72	=72
iib	B-	8D-\L	8d-\L	8f/L	8b-/L
Ic	A-	8E-\	8c\	8e-/	8a-/
v7	E-	[8E-\J	8B-\J	8d-/J	8g-/J
=73	=73	=73	=73	=73	=73
V7d/ii	F	8E-\L]	8An/L	8c/L	4f/
iib	B-	8D-\	8B-/	8d-/	.
iv7	D-	[8D-\J	8A-/J	8c-/J	8f-/
=74	=74	=74	=74	=74	=74
V7d	E-	8D-/L]	8G/L	8B-/L	4e-/
Ib	A-	8C/	8A-/	8c/	.
.	A-	8AA-/J	8c/J	8e-/J	8cc\
=75	=75	=75	=75	=75	=75
iib	B-	4DD-/	4d-\	4.f/	8cc\L
.	B-	.	.	.	8b-\
V7b/V	B-	8DDn/	8c-\	.	8a-\J
=76	=76	=76	=76	=76	=76
V	E-	8EE-/L	8B-/L	8e-/L	8g/L
V7c/V	B-	8FF/	8A-/	8dn/	8f/
Vb	E-	8GG/J	8B-/J	[8e-/J	8e-/J
=77	=77	=77	=77	=77	=77
vib	F	8AA-/L	8c/L	8e-/L]	4.f/
ii	B-	8BB-/	8B-/	8d-/	.
ii7d	B-	8AA-/J	8B-/J	[8d-/J	.
=78	=78	=78	=78	=78	=78
V7b	E-	8GG/L	8E-/L	8d-/L]	8b-/L
I	A-	8AA-/	8A-/	8c/	8e-/
.	A-	8GG/J	8A-/J	[8c/J	8e-/J
=79	=79	=79	=79	=79	=79
vi7	F	8FF/L	8E-/L	8c/L]	8a-/L
ii	B-	8GG/	8F/	8B-/	8d-/
ii7c	B-	8FF/J	16B-/L	8A-/J	8d-/J
.	B-	.	16c/JJ	.	.
=80	=80	=80	=80	=80	=80
!!linebreak:original
V7	E-	8EE-/L	8d-/L	8G/L	8b-/L
.	E-	8EEn/	8G/	8B-/	8d-/
vi	F	8FF/J	8A-/J	8A-/J	8c/J
=81	=81	=81	=81	=81	=81
IV	D-	8DD-/L	8D-/L	8d-/L	8f/L
Ic	A-	8EE-/	8E-/	8c/	8A-/
V7	E-	8EE-/J	8D-/J	8B-/J	8G/J
=82	=82	=82	=82	=82	=82
Ib	A-	8CC/L	8C/L	8A-/L	4.e-/
.	A-	8A-/	8c/	8c/	.
v7b	E-	8G-/J	8d-/J	8B-/J	.
=83	=83	=83	=83	=83	=83
V7/ii	F	8F\L	8e-\L	8An/L	8cc/L
ii	B-	8B-\	8d-\	8B-/	8f/
ii7d	B-	8A-\J	8d-\J	[8B-/J	8f/J
=84	=84	=84	=84	=84	=84
V7b	E-	8G\L	8d-\L	8B-/L]	8b-/L
i	A-	8A-\	8c-\	8A-/	8e-/
Vb	E-	8G\J	8B-\J	8e-/J	8e-/J
=85	=85	=85	=85	=85	=85
iio7	B-	4.F-\	8A-/L	4.dn/	8a-/L
iio7	B-	.	8B-/	.	8g/
iio7	B-	.	[8c-/J	.	[8a-/J
=86	=86	=86	=86	=86	=86
ic	A-	[4.E-\	8c-/L]	4e-/	8a-/L]
V	E-	.	8B-/	.	8g/
.	E-	.	8G/J	8B-/	8e-/J
=87	=87	=87	=87	=87	=87
vi7d	F	8E-\L]	8A-/L	8c/L	4f/
iib	B-	8D-\	8B-/	8d-/	.
.	B-	8D-\J	8B-/J	8d-/J	16dd-\LL
.	B-	.	.	.	16b-\JJ
=88	=88	=88	=88	=88	=88
!!pagebreak:original
V7d	E-	4D-\	4B-/	4e-/	4g/
.	E-	8r	8r	8r	16ff\LL
.	E-	.	.	.	16ee-\JJ
=89	=89	=89	=89	=89	=89
.	E-	4.r	4.r	4.r	8.ee-\L
.	E-	.	.	.	32dd-\LL
.	E-	.	.	.	32cc\JJJ
.	E-	.	.	.	16b-/LL
.	E-	.	.	.	32a-/L
.	E-	.	.	.	32g/JJJ
=90	=90	=90	=90	=90	=90
I	A-	8r	8r	8r	8a-/L
V7b/IV	A-	4C/	[4A-/	[4A-/	8g-/
.	A-	.	.	.	[8en/J
=91	=91	=91	=91	=91	=91
IV	D-	8D-/L	16A-/LL]	8A-/L]	48e/LLL]
.	D-	.	.	.	48f/
.	r	.	.	.	48g/JJJ
.	D-	.	16F/JJ	.	48a-/LLL
.	D-	.	.	.	48f/
.	r	.	.	.	48d-/JJJ
Ic	A-	8E-/	8.E-/L	8A-/	8c/L
V7	E-	8EE-/J	.	8G/J	8B-/J
.	E-	.	16D-/Jk	.	.
=92	=92	=92	=92	=92	=92
I	A-	[4.AA-/	8C/L	8A-/L	[4.A-/
IVc	D-	.	8d-/	8f/	.
I	A-	.	8c/J	8e-/J	.
=93	=93	=93	=93	=93	=93
IVc	D-	4.AA-/_	8B-/L	8d-/L	8.A-/L]
I	A-	.	8A-/	8c/	.
.	A-	.	.	.	16c/Jk
.	A-	.	8G/J	8B-/J	16d-/LL
.	A-	.	.	.	32c/L
.	A-	.	.	.	32d-/JJJ
=94	=94	=94	=94	=94	=94
.	A-	4.AA-/_	8A-/L	8c/L	8c/L
IVc	D-	.	8F/	8d-/	8A-/
I	A-	.	8E-/J	8c/J	8A-/J
=95	=95	=95	=95	=95	=95
!!linebreak:original
IVc	D-	4.AA-/_	16D-/LL	8B-/L	8.A-/L
.	D-	.	16d-/JJ	.	.
I	A-	.	8c/L	8A-/	.
.	A-	.	.	.	16c/Jk
.	A-	.	8B-/J	8G/J	16d-/LL
.	A-	.	.	.	32c/L
.	A-	.	.	.	32d-/JJJ
=96	=96	=96	=96	=96	=96
.	A-	4AA-/]	4A-/	4A-/	4c/
.	r	8r	8r	8r	8r
==:|!	==:|!	==:|!	==:|!	==:|!	==:|!
*-	*-	*-	*-	*-	*-
